X:1
T:There Was a Wee Wifey
M:6/8
L:1/8
K:G
 D| GAG ABd|(2e3.99999962500005/5.99999925000009e3.99999962500005/5.99999925000009f3.99999962500005/5.99999925000009 g3.99999962500005/5.99999925000009 B A2 d|\
B-G A B2 A| BGG G2 g| eege-e g| e3/2 f/2 ge-d B| ded ded| dgd dBG|\
 cBc dBd| egB A2 d| BGA B2 A| BGG G2 z|
